Newaita-dark/actions/22/media-skip-forward.svg

<svg height="22" viewBox="0 0 22 22" width="22" xmlns="http://www.w3.org/2000/svg"><g fill="#e0e0e0"><path d="m2.730469 5.632812c-.507813-.007812-.925781.398438-.925781.90625v9.097657c0 .734375.832031 1.164062 1.433593.734375l6.367188-4.546875c.503906-.363281.503906-1.113281 0-1.472657l-6.367188-4.550781c-.148437-.105469-.328125-.164062-.507812-.167969zm0 0"/><path d="m10.914062 5.632812c-.507812-.007812-.921874.398438-.921874.90625v9.097657c0 .734375.832031 1.164062 1.429687.734375l6.367187-4.546875c.507813-.363281.507813-1.113281 0-1.472657l-6.367187-4.550781c-.148437-.105469-.324219-.164062-.507813-.167969zm0 0"/><path d="m18.648438 5.628906h.90625c.253906 0 .457031.203125.457031.457032v10.003906c0 .25-.203125.453125-.457031.453125h-.90625c-.253907 0-.457032-.203125-.457032-.453125v-10.003906c0-.253907.203125-.457032.457032-.457032zm0 0"/></g></svg>

<svg xmlns="http://www.w3.org/2000/svg" xmlns:xlink="http://www.w3.org/1999/xlink" width="22px" height="22px" viewBox="0 0 22 22" version="1.1">
<g id="surface1">
     <defs>
  <style id="current-color-scheme" type="text/css">
   .ColorScheme-Text { color:#eeeeee; } .ColorScheme-Highlight { color:#424242; }
  </style>
 </defs>
<path style="fill:currentColor" class="ColorScheme-Text" d="M 2.730469 5.632812 C 2.222656 5.625 1.804688 6.03125 1.804688 6.539062 L 1.804688 15.636719 C 1.804688 16.371094 2.636719 16.800781 3.238281 16.371094 L 9.605469 11.824219 C 10.109375 11.460938 10.109375 10.710938 9.605469 10.351562 L 3.238281 5.800781 C 3.089844 5.695312 2.910156 5.636719 2.730469 5.632812 Z M 2.730469 5.632812 "/>
     <defs>
  <style id="current-color-scheme" type="text/css">
   .ColorScheme-Text { color:#eeeeee; } .ColorScheme-Highlight { color:#424242; }
  </style>
 </defs>
<path style="fill:currentColor" class="ColorScheme-Text" d="M 10.914062 5.632812 C 10.40625 5.625 9.992188 6.03125 9.992188 6.539062 L 9.992188 15.636719 C 9.992188 16.371094 10.824219 16.800781 11.421875 16.371094 L 17.789062 11.824219 C 18.296875 11.460938 18.296875 10.710938 17.789062 10.351562 L 11.421875 5.800781 C 11.273438 5.695312 11.097656 5.636719 10.914062 5.632812 Z M 10.914062 5.632812 "/>
     <defs>
  <style id="current-color-scheme" type="text/css">
   .ColorScheme-Text { color:#eeeeee; } .ColorScheme-Highlight { color:#424242; }
  </style>
 </defs>
<path style="fill:currentColor" class="ColorScheme-Text" d="M 18.648438 5.628906 L 19.554688 5.628906 C 19.808594 5.628906 20.011719 5.832031 20.011719 6.085938 L 20.011719 16.089844 C 20.011719 16.339844 19.808594 16.542969 19.554688 16.542969 L 18.648438 16.542969 C 18.394531 16.542969 18.191406 16.339844 18.191406 16.089844 L 18.191406 6.085938 C 18.191406 5.832031 18.394531 5.628906 18.648438 5.628906 Z M 18.648438 5.628906 "/>
</g>
</svg>
